X:105
T:Soloveyko
L:1/8
M:2/4
O:Ukraine
Q:144
R:Polka
Z:Orest Lechnowsky 
%%TUNEURL: http://www.leeds.ac.uk/music/Info/RRTuneBk/gettune/00000651.html
%%ID:00000651
K:G
gBgB | BAAc | eddF | AGGG | \
gBgB | BAAc | eddF | G2G2 ::
d/2^c/2d/2c/2 d/2c/2d/2c/2 | ec c/2B/2A | \
FA c/2B/2A | GGBG | \
d/2^c/2d/2c/2 d/2c/2d/2c/2 | ec c/2B/2A | \
FA c/2B/2A | G z G z :|
